X: 15699
T: Golden Fish, The
R: jig
M: 6/8
K: Dmajor
d>ed AFA|dfd ecA|dcd AFA|Bec d2z:|
dAd BAG|eBe cBA|efg fed|eBc d2z:|

